!!!!SEGMENT: pl-kk--kk-i-1--017-002_anonim--gloria.krn
!!!cenid: 15xx:787
!!!COM: Anonim
!!!COM-rismid: pe30004985
!!!CDT:
!!!CNT:
!!!OTL: Gloria
!!!OMV: 002
!!!PDT:
!!!AGN:
!!!SMS-siglum: PL-Kk
!!!SMS-shelfmark: Kk.I.1
!!!SMS-shelfwork: 017-002 W
!!!SMS-variant:
!!!SMS-altvar:
!!!NIFC-rismid: 300257971
!!!URL-scan: http://repozytorium.nifc.pl/skany/pl-kk-nut--i-1
!!!ONB-nifc: UWAGA: zapis na doklejonej małej kartce, Cantus (s. 101r, skan 0102), Altus (s. 96r, skan 0288), Tenor (s. 93r, skan 0480), Bassus (s. 95r, skan 0656).
**kern	**text	**kern	**text	**kern	**text	**kern	**text
*part4	*part4	*part3	*part3	*part2	*part2	*part1	*part1
*staff4	*staff4	*staff3	*staff3	*staff2	*staff2	*staff1	*staff1
*Iempty	*	*Itenor	*	*Iempty	*	*Iempty	*
*I"BASSVS	*	*I"TENOR	*	*I"ALTVS	*	*I"CANTVS	*
*I'B	*	*I'T	*	*I'A	*	*I'C	*
*ICvox	*	*ICvox	*	*ICvox	*	*ICvox	*
*clefF4	*	*clefC4	*	*clefC4	*	*clefC3	*
*k[]	*	*k[]	*	*k[]	*	*k[]	*
*F:	*	*F:	*	*F:	*	*F:	*
*M2/1	*	*M2/1	*	*M2/1	*	*M2/1	*
*	*	*met(C|)	*	*met(C|)	*	*met(C|)	*
=1-	=1-	=1-	=1-	=1-	=1-	=1-	=1-
*lig	*	*	*	*	*	*lig	*
1D\	Glo-	1F/	Glo-	2.A/	Glo-	1d\	Glo-
!	!	!	!	!LO:TX:t=P:problem=kreska pseudotaktowa	!	!	!
.	.	.	.	4B\	.	.	.
!	!	!	!	!	!	!LO:TX:t=P:problem=kreska pseudotaktowa	!
1C/	.	1G/	-ri-	1.c\	.	1e\	.
*Xlig	*	*	*	*	*	*Xlig	*
=2-	=2-	=2-	=2-	=2-	=2-	=2-	=2-
!	!	!LO:TX:t=P:problem=kreska pseudotaktowa	!	!	!	!	!
1.FF/	.	1A\,	-a	.	.	1.f\	.
!	!	!	!	!LO:TX:t=P:problem=kreska pseudotaktowa	!	!	!
.	.	.	.	2c\	-ri-	.	.
.	.	1A\	Pa-	2c\	-a	.	.
!LO:TX:t=P:problem=kreska pseudotaktowa	!	!	!	!	!	!	!
2FF/	-ri-	.	.	2.d\	Pa-	2f\	-ri-
=3-	=3-	=3-	=3-	=3-	=3-	=3-	=3-
!LO:TX:t=P:problem=kreska pseudotaktowa	!	!	!	!	!	!LO:TX:t=P:problem=kreska pseudotaktowa	!
1AA/	-a	1A\,	-tri	.	.	1e\	-a
.	.	.	.	8c\L	.	.	.
.	.	.	.	8B\J	.	.	.
!	!	!	!	!LO:TX:t=P:problem=kreska pseudotaktowa	!	!	!
.	.	.	.	2c#X\	.	.	.
!	!	!LO:TX:t=P:problem=kreska pseudotaktowa	!	!	!	!	!
1D\	Pa-	1A\,	et	2d\	-tri	1f\	Pa-
.	.	.	.	2d\	et	.	.
=4-	=4-	=4-	=4-	=4-	=4-	=4-	=4-
2AA/	-tri	1A\	Fi-	2.cny\	Fi-	2e\	-tri
!LO:TX:t=P:problem=kreska pseudotaktowa	!	!	!	!	!	!	!
2AA/	et	.	.	.	.	2.a\	et
!	!	!	!	!LO:TX:t=P:problem=kreska pseudotaktowa	!	!	!
.	.	.	.	4B\	.	.	.
4D\	Fi-	1A\	-li-	2A/	.	.	.
4E\	.	.	.	.	.	4g\	.
!	!	!	!	!	!	!LO:TX:t=P:problem=kreska pseudotaktowa	!
4F\	.	.	.	1d\	.	2f\	Fi-
4G\	.	.	.	.	.	.	.
=5-	=5-	=5-	=5-	=5-	=5-	=5-	=5-
!	!	!LO:TX:t=P:problem=kreska pseudotaktowa	!	!	!	!	!
2.A\	-li-	1A\,	-o	.	.	2.e\	-li-
!	!	!	!	!LO:TX:t=P:problem=kreska pseudotaktowa	!	!	!
.	.	.	.	2c#X\	-li-	.	.
!LO:TX:t=P:problem=kreska pseudotaktowa	!	!	!	!	!	!	!
4A\	-o	.	.	.	.	4e\	-o
!	!	!	!	!	!	!LO:TX:t=P:problem=kreska pseudotaktowa	!
2D/	et	1A\	et	2d\	-o	1f\	.
!	!	!	!	!LO:TX:t=P:problem=kreska pseudotaktowa	!	!	!
2D/	Spi-	.	.	2F/	et	.	.
=6-	=6-	=6-	=6-	=6-	=6-	=6-	=6-
2C/	-ri-	1A\	Spi-	2E/	Spi-	2r	.
2.F\	-tu-	.	.	2.A/	-ri-	2d\	et
*	*	*lig	*	*	*	*	*
.	.	1A\	-ri-	.	.	2c/	Spi-
4E\	-i	.	.	4G/	-tu-	.	.
!LO:TX:t=P:problem=kreska pseudotaktowa	!	!	!	!LO:TX:t=P:problem=kreska pseudotaktowa	!	!LO:TX:t=P:problem=kreska pseudotaktowa	!
2D/	San-	.	.	2F/	-i	2.f\	-ri-
!	!	!	!	!LO:LB:g=original	!	!	!
=7-	=7-	=7-	=7-	=7-	=7-	=7-	=7-
1C/	.	1c\	.	1G/	Sanc-	.	.
.	.	.	.	.	.	4f\	-tu-
.	.	.	.	.	.	2e\	-i
!	!	!	!	!	!	!LO:TX:t=P:problem=kreska pseudotaktowa	!
*	*	*Xlig	*	*	*	*	*
2FF/	-cto	1A\	-tu-	4F/	-to	2f\	San-
.	.	.	.	2cny\	et	.	.
!	!	!	!	!	!	!LO:LB:g=original	!
!LO:TX:t=P:problem=kreska pseudotaktowa	!	!	!	!	!	!	!
2F\	et	.	.	.	.	4f\	-cto
!	!	!	!	!LO:TX:t=P:problem=kreska pseudotaktowa	!	!	!
.	.	.	.	4A\	.	2a\	.
!LO:LB:g=original	!	!	!	!	!	!	!
=8-	=8-	=8-	=8-	=8-	=8-	=8-	=8-
!	!	!LO:TX:t=P:problem=kreska pseudotaktowa	!	!	!	!	!
2D/	Spi-	0A\	-i	2.d\	Spi-	.	.
.	.	.	.	.	.	4f\	.
!	!	!	!	!	!	!LO:TX:t=P:problem=kreska pseudotaktowa	!
2.F\	-ri-	.	.	.	.	2.a\	.
.	.	.	.	4d\	-ri-	.	.
.	.	.	.	2c\	-tu-	.	.
4E\	-tu-	.	.	.	.	4g\	.
!LO:TX:t=P:problem=kreska pseudotaktowa	!	!	!	!LO:TX:t=P:problem=kreska pseudotaktowa	!	!LO:TX:t=P:problem=kreska pseudotaktowa	!
2D/	-i	.	.	2d\	-i	2f\	.
=9-	=9-	=9-	=9-	=9-	=9-	=9-	=9-
*	*	*lig	*	*	*	*	*ij
2.AA/	San-	1A\	San-	0.c\	San-	2e\	San-
.	.	.	.	.	.	1f\	.
!LO:TX:t=P:♭above:problem	!	!	!	!	!	!	!
4BB-X/	.	.	.	.	.	.	.
0C/	.	1G/	.	.	.	.	.
.	.	.	.	.	.	4e\	.
.	.	.	.	.	.	4d\	.
*	*	*Xlig	*	*	*	*	*
=10-	=10-	=10-	=10-	=10-	=10-	=10-	=10-
*	*	*lig	*	*	*	*	*
.	.	1G/	-cto	.	.	1e\	.
!	!	!LO:SIC:v:t=custos G	!	!	!	!	!
!LO:TX:t=P:problem=kreska pseudotaktowa	!	!LO:TX:t=P:problem=kreska pseudotaktowa	!	!LO:TX:t=P:problem=kreska pseudotaktowa	!	!LO:TX:t=P:problem=kreska pseudotaktowa	!
1FF/	-cto	1A\	.	1c\	-cto	1f\	-cto
*	*	*Xlig	*	*	*	*	*Xij
!	!	!LO:LB:g=original	!	!	!	!	!
=11-	=11-	=11-	=11-	=11-	=11-	=11-	=11-
*	*	*lig	*	*	*	*	*
2.C/	Sic-	1G/	Si-	00r	.	0r	.
4C/	-ut	.	.	.	.	.	.
2D/	e-	1F/	.	.	.	.	.
2D/	-rat	.	.	.	.	.	.
!LO:TX:t=P:problem=kreska pseudotaktowa	!	!	!	!	!	!	!
*	*	*Xlig	*	*	*	*	*
=12-	=12-	=12-	=12-	=12-	=12-	=12-	=12-
*	*	*lig	*	*	*	*	*
2E\	in	1G/	-cut	.	.	1r	.
2E\	Prin-	.	.	.	.	.	.
!	!	!LO:TX:t=P:problem=kreska pseudotaktowa	!	!	!	!	!
2.F\	.	1A\	.	.	.	2.c/	Sic-
4E\	-ci-	.	.	.	.	4c/	-ut
!	!	!	!	!	!	!LO:TX:t=P:problem=kreska pseudotaktowa	!
*	*	*Xlig	*	*	*	*	*
=13-	=13-	=13-	=13-	=13-	=13-	=13-	=13-
*lig	*	*	*	*	*	*	*
!	!	!	!	!LO:TX:t=P:problem=kreska pseudotaktowa	!	!	!
1D\	.	1A\	e-	1r	.	2d\	e-
.	.	.	.	.	.	2d\	-rat
*col	*	*	*	*	*	*	*
!	!	!LO:TX:t=P:problem=kreska pseudotaktowa	!	!	!	!	!
2.AA/	.	1A\,	-rat	2.c\	Sic-	2.e\	in
*Xlig	*	*	*	*	*	*	*
!LO:TX:t=P:problem=kreska pseudotaktowa	!	!	!	!	!	!LO:TX:t=P:problem=kreska pseudotaktowa	!
4AA/	-pi-	.	.	4c\	-ut	4e\	Prin-
*Xcol	*	*	*	*	*	*	*
=14-	=14-	=14-	=14-	=14-	=14-	=14-	=14-
2D/	-o	1A\	in	2d\	e-	4f\	.
.	.	.	.	.	.	4e\	.
!LO:TX:t=P:problem=kreska pseudotaktowa	!	!	!	!LO:TX:t=P:problem=kreska pseudotaktowa	!	!	!
2F\	et	.	.	2d\	-rat	1d\	-ci-
2.A\	Nunc	1A\	prin-	1e\	in	.	.
!	!	!	!	!	!	!LO:TX:t=P:problem=kreska pseudotaktowa	!
.	.	.	.	.	.	2c/	-pi-
4G\	.	.	.	.	.	.	.
=15-	=15-	=15-	=15-	=15-	=15-	=15-	=15-
4F\	.	1A\	-ci-	1f\	Prin-	2d\	-o
4E\	.	.	.	.	.	.	.
!LO:SIC:v:t=custos C	!	!	!	!	!	!LO:TX:t=P:problem=w tych trzech taktach można rytmicznie różnie spekulować, bo nie wiadomo do końca, czy przy nutach są wyblakłe caudy, czy może są to semibreves.	!
1D\	.	.	.	.	.	1f\	Et
.	.	1A\	-pi-	2.e\	-ci-	.	.
!LO:LB:g=original	!	!	!	!	!	!	!
!LO:TX:t=P:problem=kreska pseudotaktowa	!	!	!	!	!	!	!
2C/	et	.	.	.	.	2.a\	nunc
!	!	!	!	!LO:TX:t=P:problem=kreska pseudotaktowa	!	!	!
.	.	.	.	4e\	.	.	.
=16-	=16-	=16-	=16-	=16-	=16-	=16-	=16-
*lig	*	*	*	*	*	*	*
!	!	!LO:TX:t=P:problem=kreska pseudotaktowa	!	!	!	!	!
1D\	Sem-	1A\	-o	2d\	-pi-	.	.
!	!	!	!	!	!	!LO:SIC:v:t=custos f	!
.	.	.	.	.	.	4g\	.
!	!	!	!	!	!	!LO:LB:g=original	!
!	!	!	!	!LO:TX:t=P:problem=kreska pseudotaktowa	!	!	!
.	.	.	.	2A/	-o	4f\	.
.	.	.	.	.	.	4e\	.
!	!	!	!	!	!	!LO:TX:t=P:problem=możliwe, że tu powinno być coś innego; mam też inne rozwiązania tego miejsca, mogę podesłać 	!
1AA/	.	1A\	et	2.c\	Et	1d\	et
.	.	.	.	4B\	nunc	.	.
*Xlig	*	*	*	*	*	*	*
=17-	=17-	=17-	=17-	=17-	=17-	=17-	=17-
*lig	*	*lig	*	*	*	*	*
1D\	.	1A\	Nunc	4A/	.	1f\	Sem-
.	.	.	.	4G/	.	.	.
!	!	!	!	!LO:TX:t=P:problem=kreska pseudotaktowa	!	!	!
.	.	.	.	2F/	.	.	.
!	!	!	!	!LO:LB:g=original	!	!	!
!	!	!LO:TX:t=P:problem=kreska pseudotaktowa	!	!	!	!LO:TX:t=P:problem=kreska pseudotaktowa	!
1C/	.	1c\	.	1.G/	et	1e\	.
*Xlig	*	*Xlig	*	*	*	*	*
=18-	=18-	=18-	=18-	=18-	=18-	=18-	=18-
!	!	!LO:TX:t=P:problem=kreska pseudotaktowa	!	!	!	!	!
4FF/	.	1A\	et	.	.	0c\	.
4GG/	.	.	.	.	.	.	.
4AA/	.	.	.	1F/	Sem-	.	.
!LO:TX:t=P:problem=kreska pseudotaktowa	!	!	!	!	!	!	!
4BBny/	.	.	.	.	.	.	.
1C/	-per	1G/	Sem-	.	.	.	.
.	.	.	.	2E/	.	.	.
=19-	=19-	=19-	=19-	=19-	=19-	=19-	=19-
!LO:TX:t=P:problem=kreska pseudotaktowa	!	!LO:TX:t=P:problem=kreska pseudotaktowa	!	!LO:TX:t=P:problem=kreska pseudotaktowa	!	!	!
1FF/	.	1A\	-per	1F/	-per	1c\	-per
*lig	*	*lig	*	*	*	*lig	*
1C/	et	1G/	Et	2r	.	1e\	Et
.	.	.	.	1c\	Et	.	.
=20-	=20-	=20-	=20-	=20-	=20-	=20-	=20-
!	!	!	!	!	!	!LO:TX:t=P:problem=kreska pseudotaktowa	!
1D\	.	1F/	.	.	.	1d\	.
.	.	.	.	2B\	in	.	.
!	!	!	!	!LO:TX:t=P:problem=kreska pseudotaktowa	!	!	!
*Xlig	*	*Xlig	*	*	*	*Xlig	*
!LO:TX:t=P:problem=kreska pseudotaktowa	!	!	!	!	!	!	!
*	*	*lig	*	*	*	*	*
1C/	in	1G/	in	1.c\	Se-	1e\	in
=21-	=21-	=21-	=21-	=21-	=21-	=21-	=21-
!	!	!LO:TX:t=P:problem=kreska pseudotaktowa	!	!	!	!	!
2.FF/	Se-	1A\	.	.	.	2.f\	Se-
.	.	.	.	2c\	-cu-	.	.
4FF/	-cu-	.	.	.	.	4f\	-cu-
!	!	!	!	!LO:TX:t=P:problem=kreska pseudotaktowa	!	!LO:TX:t=P:problem=kreska pseudotaktowa	!
*	*	*Xlig	*	*	*	*	*
2FF/	-la	1A\	Se-	4c\	-la	2f\	-la
.	.	.	.	2c\	Se-	.	.
1F\	Se-	.	.	.	.	1a\	Se-
!	!	!	!	!LO:TX:t=P:problem=kreska pseudotaktowa	!	!	!
.	.	.	.	4c\	-cu-	.	.
=22-	=22-	=22-	=22-	=22-	=22-	=22-	=22-
.	.	1A\	-cu-	4A\	-lo-	.	.
.	.	.	.	4B\	.	.	.
!LO:TX:t=P:problem=kreska pseudotaktowa	!	!	!	!	!	!LO:TX:t=P:problem=kreska pseudotaktowa	!
2F\	-cu-	.	.	4c\	.	2a\	-cu-
!	!	!	!	!LO:TX:t=P:problem=kreska pseudotaktowa	!	!	!
.	.	.	.	4A\	.	.	.
!	!	!LO:LB:g=original	!	!	!	!	!
!	!	!LO:TX:t=P:problem=kreska pseudotaktowa	!	!	!	!	!
4D\	-lo-	1A\	-la	1d\	.	4f\	-lo-
4C/	.	.	.	.	.	4e\	.
4D\	.	.	.	.	.	4f\	.
4E\	.	.	.	.	.	4g\	.
=23-	=23-	=23-	=23-	=23-	=23-	=23-	=23-
1F\	-ru(m)	1A\	Se-	4c\	.	2a\	.
.	.	.	.	4B\	.	.	.
!	!	!	!	!	!	!LO:TX:t=P:problem=kreska pseudotaktowa	!
.	.	.	.	1A\	.	2d\	.
!LO:TX:t=P:problem=kreska pseudotaktowa	!	!	!	!	!	!	!
1E\	.	1B\	-cu-	.	.	1e\	.
!	!	!	!	!LO:TX:t=P:problem=kreska pseudotaktowa	!	!	!
!	!	!	!	!LO:TX:t=P:problem=# above	!	!	!
.	.	.	.	2G#X/	.	.	.
=24-	=24-	=24-	=24-	=24-	=24-	=24-	=24-
2AA/	a-	1c\	-lo-	2.A/	.	2e\	-ru(m)
2.FF/	.	.	.	.	.	1f\	a-
.	.	.	.	4B\	.	.	.
!	!	!LO:TX:t=P:problem=kreska pseudotaktowa	!	!LO:TX:t=P:problem=kreska pseudotaktowa	!	!	!
.	.	1A\	-rum	1c\	-ru(m)	.	.
4GG/	.	.	.	.	.	.	.
!LO:LB:g=original	!	!	!	!	!	!	!
4AA/	.	.	.	.	.	4e\	.
!LO:TX:t=P:problem=kreska pseudotaktowa	!	!	!	!	!	!LO:TX:t=P:problem=kreska pseudotaktowa	!
4BB/	.	.	.	.	.	4d\	.
=25-	=25-	=25-	=25-	=25-	=25-	=25-	=25-
*lig	*	*lig	*	*	*	*	*
1C/	.	1G/	a-	2.c\	a-	1e\	.
.	.	.	.	4B\	.	.	.
!	!	!	!	!LO:LB:g=original	!	!LO:LB:g=original	!
1D\	.	1F/	.	0A\	.	2e\	.
.	.	.	.	.	.	1d\	.
*Xlig	*	*Xlig	*	*	*	*	*
=26-	=26-	=26-	=26-	=26-	=26-	=26-	=26-
!LO:TX:t=P:problem=kreska pseudotaktowa	!	!	!	!	!	!	!
1AA/	-men	1E/	.	.	.	.	.
!	!	!	!	!	!	!LO:TX:t=P:problem=# above	!
.	.	.	.	.	.	2c#X/	.
!	!	!	!	!LO:TX:t=P:problem=kreska pseudotaktowa	!	!	!
!	!	!	!	!LO:TX:t=P:problem=# above	!	!LO:TX:t=P:problem=kreska pseudotaktowa	!
2.D/	a-	0D/	.	1F#X/	-men	1d\	-men
4C/	.	.	.	.	.	.	.
=27-	=27-	=27-	=27-	=27-	=27-	=27-	=27-
!LO:TX:t=P:♭above:problem	!	!	!	!	!	!	!
4BB-X/	.	.	.	2r	.	4d\	.
4AA/	.	.	.	.	.	4cny/	a-
1GG/	.	.	.	4d\	A-	4B-X/	.
!	!	!	!	!LO:TX:t=P:problem=kreska pseudotaktowa	!	!LO:TX:t=P:problem=kreska pseudotaktowa	!
.	.	.	.	4c\	.	4A/	.
!	!	!LO:N:vis=0	!	!	!	!	!
.	.	[y1D/	-men	2B-X\	.	2G/	.
!LO:TX:t=P:problem=# above	!	!	!	!	!	!LO:TX:t=P:problem=kreska pseudotaktowa	!
2FF#X/	.	.	.	4A/	.	2A/	.
.	.	.	.	2d\	.	.	.
=28-	=28-	=28-	=28-	=28-	=28-	=28-	=28-
!	!	!LO:N:vis=0	!	!	!	!	!
0GG/	.	00D/;]	.	.	.	4B-X/	.
.	.	.	.	4c\	.	4c/	.
.	.	.	.	4B-X\	.	4d\	.
!	!	!	!	!LO:TX:t=P:problem=kreska pseudotaktowa	!	!LO:TX:t=P:problem=kreska pseudotaktowa	!
.	.	.	.	4A\	.	4c/	.
.	.	.	.	1.Gny/	.	1.B-X/	.
=29-	=29-	=29-	=29-	=29-	=29-	=29-	=29-
0D\;;	-men	.	.	.	.	.	.
.	.	.	.	4F#X/	.	4A/	-men
.	.	.	.	4E/	-men	4G/	.
.	.	.	.	1F#Xl/;	.	1Al/;	.
==	==	==	==	==	==	==	==
*-	*-	*-	*-	*-	*-	*-	*-
!!!system-decoration: [s1,s2,s3,s4]
!!!RDF**kern: l = terminal long
!!!ENC: Mateusz Solarz
!!!END: 2022-03-03
!!!AIN: 3 empty 1 tenor
!!!ENC: Leszek Kubiak
!!!END: 2022-03-12
